!!!OTL: Frisch gesungen.
!!!OTL-incipit: HAB OFT IM KREISE DER LIEBEN
!!!COM: Fr. Silcher
!!!ARE: Europa, Mitteleuropa, Deutschland
!!!SCT: F0814
!!!TXL: @@DE
!!!YEM: Copyright 1995, estate of Helmut Schaffrath.
**kern	**text
*ICvox	*
*M4/4	*
*met(c)	*
*k[b-e-]	*
*B-:	*
!LO:TX:a:t=Lebendig.	!
!LO:TX:a:t=Ʒweiſtimmig.	!
{4f	1._Hab'
=1	=1
4dd	oft
4dd	im
4ee-	Krei-
8dd	-ſe
8dd	der
=2	=2
(>4.cc/	Lie-
8dd/)	.
4cc/}	-ben,
{(>8dd/L	im
8cc/J)	.
=3	=3
4b-/	duf-
8b-/	-ten-
8b-/	-den
(>8cc/L	Gra-
8b-J)	.
8a	-ſe
8b-/	ge-
=4	=4
2cc/	-ruht,
4r}	.
{4cc/	und
=5	=5
4cc	mir
4cc	ein
4dd	Lied-
8dd/	-lein
8dd/	ge-
=6	=6
2ff	-ſun-
4ee-}	-gen,
{(>8dd/L	und
8ccJ)	.
=7	=7
4b-/	al-
8b-/	-les
8b-/	war
(>8aL	hübſch
8b-J)	.
(>8cc/L	und
8ddJ)	.
=8	=8
2b-/	gut,
4r}	.
{4b-	und
=9	=9
4b-	mir
4b-	ein
4ee-	Lied-
8dd/	-lein
8dd/	ge-
=10	=10
(>4.cc/	-ſun-
8dd/)	.
4cc/}	-gen,
{4dd	und
=11	=11
4ee-	al-
8ee-/	-les
8dd/	war
4cc	hübſch
(>8.cc/L	und
16ddJ)	.
=12	=12
2cc	gut,
4r}	.
{4cc	und
=13	=13
2ff	al-
4een	-les,
4r	.
=14	=14
2ee-X	al-
4dd	-les,
8r}	.
{8dd/	und
=15	=15
(>8ff/L	al-
8ee-J)	.
8dd/	-les
8cc/	war
4b-	hübſch
4a	und
=16	=16
2b-	gut.
4r}	.
==	==
!!!AGN: Geselligkeits -, Moral - Lied
!!!ONB: ESAC (Essen Associative Code) Database: FINK
!!!AMT: simple quadruple
!!!AIN: vox
!!!EED: Helmut Schaffrath
!!!EEV: 1.0
!!Text: A. v. Chamisso
!!!source: Musikalischer Hausschatz der Deutschen. Eine Sammlung von über 1000 Liedern und Gesängen mit Singstimmen und Klavierbegleitung. Leipzig, Litterarisches Verlags-Haus.
!!!page: 565
!!!ENC: Anna Maria Matuszewska
!!!EEV: 2025/03/19
*-	*-
